X: 5721
T: Café Milou
R: jig
M: 6/8
K: Dmixolydian
|:A2G EFG|EED DE/F/G|A2G EFG|ABc EFG|
A2G EFG|EED DE/F/G|ABc EED|D6:|
|:AFA d2e|fag efd|cde ABc|EFG BcB|
AFA d2e|fag efd|cde AGE|D3 zE/F/G:|

